X:1
T:vive le vent
%%score 1 2 3 4
L:1/8
M:2/4
K:G
V:1 treble nm="Womens Voices" snm="Wmn"
V:2 treble nm="Mens Voices" snm="Men"
V:3 treble nm="Piano" snm="Pno"
V:4 treble nm="Piano" snm="Pno"
V:1
"G" DB AG | D2 z D/D/ | DB AG |"C" E2 z D | Ec BA |"D7" F2 z D | d(d cA) |"G" B2 z D | DB AG | %9
w: Sur le long che|min Tout blanc|de nei ge blan|che un|vieux mon sieur s'a|vance Avec|sa canne dans la|main Et|tout là haut le|
 D2 z D | DB AG |"C" E2 z E | Ec BA |"D" dd dd | (ed cA) |"G""D7" G3 z |[K:treble]"G" BB B2 | %17
w: vent Qui|siffle dans les bran|ches Lui|souf fle la ro|man ce qui'l chan|tait pe tit en|fant|Vive le vent,|
 BB B2 | Bd"C" G>A |"G" B3 z |"Am7" cc c>c | c"G"B B>B |"A7" BA AG |"D" A z"D7" d2 |"G" BB B2 | %25
w: vive le vent|Vive le vent d'hi|ver|Qui s'en va sif|flant, souf flant Dans|les grands sa pins|verts OH|Vive le temps,|
 BB B2 | Bd"C" G>A |"G" B3 z |"Am7" cc c>c | c"G"B B>B |"D7" dd cA |"G" G4 :| %32
w: vive le temps|Vive le temps d'hi|ver|Boule de neige et|jour de l'an Et|bonne an née grand|mère|
V:2
 x4 | x4 | x4 | x4 | x4 | x4 | x4 | x4 | x4 | x4 | x4 | x4 | x4 | x4 | x4 | x4 |[K:treble] GG G2 | %17
 GG G2 | GG D>D | G3 z | GG A>F | GG G>A | GG EE | D z z2 | GG G2 | GG G2 | GG D>D | G3 z | %28
 GG A>F | GG G>A | FF FD | D4 :| %32
V:3
 x4 | x4 | x4 | x4 | x4 | x4 | x4 | x4 | x4 | x4 | x4 | x4 | x4 | x4 | x4 | x4 |[K:treble] DD D2 | %17
 DD D2 | D=F E>_E | D3 z | DD D>D | DD D>D | ^CC CC | C z z2 | DD D2 | DD D2 | D=F E>_E | D3 z | %28
 DD D>D | DD D>D | DD CA, | B,4 :| %32
V:4
 z4 | z4 | z4 | z4 | z4 | z4 | z4 | z4 | z4 | z4 | z4 | z4 | z4 | z4 | z4 | z4 |[K:bass] G,G, G,2 | %17
 G,G, G,2 | G,G, G,>G, | G,3 z | A,C, F,>A, | G,G, G,>G, | E,A, A,A, | F, z z2 | G,G, G,2 | %25
 G,G, G,2 | G,G, G,>G, | G,3 z | A,C, F,>A, | G,G, G,>G, | %30
"_Vive le vent, vive le vent   Vive le vent d'hiver\nQui s'en va sifflant, soufflant  Dans les grands sapins verts\nOH! Vive le temps, vive le temps   Vive le temps d'hiver\nBoule de neige et jour de l'an    Et bonne année grand-mère ...\n\nSur le long chemin    Tout blanc de neige blanche\nUn vieux monsieur s'avance    Avec sa canne dans la main\nEt tout là-haut le vent   Qui siffle dans les branches\nLui souffle la romance    Qu'il chantait petit enfant:\n\nEt le vieux monsieur   Descend vers le village,\nC'est l'heure où tout est sage   Et on danse au coin du feu\nEt dans chaque maison    Il joue un air de fête\nPartout la table est prête   Et on entend la même chanson\n\n\n" D,D, D,D, | %31
 G,4 :| %32

